icons/puppet.svg

<svg enable-background="new 0 0 18.2 28" viewBox="0 0 18.2 28" xmlns="http://www.w3.org/2000/svg"><path d="m15.5 11h-4.5l-2.4-2.4v-4.5h-6v5.9h4.5l2.4 2.4v3.1l-2.3 2.5h-4.6v5.9h5.9v-4.5l2.5-2.4h4.5zm-10.9-4.9h2v2h-2zm2 15.9h-2v-2h2z" fill="#fbc02d"/></svg>

<?xml version="1.0" encoding="utf-8"?>
<!-- Generator: Adobe Illustrator 21.1.0, SVG Export Plug-In . SVG Version: 6.00 Build 0)  -->
<svg version="1.1" id="Calque_1" xmlns="http://www.w3.org/2000/svg" xmlns:xlink="http://www.w3.org/1999/xlink" x="0px" y="0px"
	 viewBox="0 0 18.2 28" style="enable-background:new 0 0 18.2 28;" xml:space="preserve">
<style type="text/css">
	.st0{fill:#FBC02D;}
</style>
<g>
	<path class="st0" d="M15.5,11H11L8.6,8.6V4.1H2.6V10h4.5l2.4,2.4v3.1L7.2,18H2.6v5.9h5.9v-4.5L11,17h4.5V11z M4.6,6.1h2v2h-2V6.1z
		 M6.6,22h-2v-2h2L6.6,22z"/>
</g>
</svg>
